X:286
T:Dave Collins' Jig
R:jig
H:Also played in A
Z:id:hn-jig-286
M:6/8
K:G
F|G2G, B,DD|ABA AGF|G2E DB,G,|~B,3 A,B,A,|
~G,3 B,A,B,|G,B,D EDB,|DEG AGE|GBA G2:|
A|~B3 ABA|GBe dBA|G2G, B,A,G,|~B,3 A,B,A,|
~G,3 B,A,B,|G,B,D EDB,|DEG AGE|GBA G2A|
~B3 ABA|GBe dBA|edB GBd|egf e2f|
~g3 fed|edB AFD|EFG AFD|GBA G2||

